brandFactory_export/2.Regular/Ajustes web _2Regular.svg

<?xml version="1.0" encoding="UTF-8"?>
<svg width="24px" height="24px" viewBox="0 0 24 24" version="1.1" xmlns="http://www.w3.org/2000/svg" xmlns:xlink="http://www.w3.org/1999/xlink">
    <title>2.Regular/Ajustes web _2Regular</title>
    <g id="Symbols" stroke="none" stroke-width="1" fill="none" fill-rule="evenodd">
        <g id="2.Regular/Ajustes-web-_2Regular" fill="#5CB615" fill-rule="nonzero">
            <path d="M4.98823529,6.22016807 C4.60840336,6.22016807 4.30588235,5.92436975 4.30588235,5.56134454 C4.30588235,5.19495798 4.61176471,4.90252101 4.98823529,4.90252101 C5.36806723,4.90252101 5.67058824,5.19831933 5.67058824,5.56134454 C5.67058824,5.92436975 5.36806723,6.22016807 4.98823529,6.22016807 Z M7.03865546,6.22016807 C6.65882353,6.22016807 6.35630252,5.92436975 6.35630252,5.56134454 C6.35630252,5.19495798 6.66218487,4.90252101 7.03865546,4.90252101 C7.41848739,4.90252101 7.7210084,5.19831933 7.7210084,5.56134454 C7.72436975,5.92436975 7.41848739,6.22016807 7.03865546,6.22016807 Z M2.93781513,6.22016807 C2.55798319,6.22016807 2.25546218,5.92436975 2.25546218,5.56134454 C2.25546218,5.19495798 2.56134454,4.90252101 2.93781513,4.90252101 C3.31428571,4.90252101 3.62016807,5.19831933 3.62016807,5.56134454 C3.62016807,5.92436975 3.31428571,6.22016807 2.93781513,6.22016807 Z M11.687395,14.7848739 C12.4134454,14.7848739 12.7226891,14.4857143 12.7226891,13.789916 C12.7226891,13.0907563 12.4134454,12.7915966 11.687395,12.7915966 C10.9613445,12.7915966 10.6521008,13.0907563 10.6521008,13.789916 C10.6521008,14.4857143 10.9647059,14.7848739 11.687395,14.7848739 Z M11.687395,11.6554622 C13.0554622,11.6554622 13.902521,12.4722689 13.902521,13.789916 C13.902521,15.1042017 13.0554622,15.9210084 11.687395,15.9210084 C10.3193277,15.9210084 9.47226891,15.1042017 9.47226891,13.789916 C9.47226891,12.4722689 10.3226891,11.6554622 11.687395,11.6554622 Z M15.7781513,14.0117647 L15.7781513,13.5613445 L15.0184874,13.5613445 C14.7294118,13.5613445 14.4806723,13.3596639 14.4369748,13.0840336 C14.3865546,12.7848739 14.302521,12.512605 14.1815126,12.2806723 C14.0705882,12.0621849 14.1142857,11.8 14.292437,11.6252101 L14.8605042,11.0773109 L14.5042017,10.7344538 L13.9327731,11.2823529 C13.7546218,11.4537815 13.4823529,11.4941176 13.2571429,11.389916 C13.0016807,11.2689076 12.7327731,11.1915966 12.4201681,11.1411765 C12.1344538,11.097479 11.9226891,10.8588235 11.9226891,10.5798319 L11.9226891,9.85042017 L11.4521008,9.85042017 L11.4521008,10.5798319 C11.4521008,10.8588235 11.2436975,11.097479 10.9579832,11.1411765 C10.6420168,11.1915966 10.3630252,11.2722689 10.1210084,11.3865546 C9.89243697,11.4941176 9.62016807,11.4537815 9.44201681,11.2789916 L8.87058824,10.7310924 L8.51428571,11.0739496 L9.08235294,11.6218487 C9.27058824,11.8033613 9.31092437,12.0823529 9.17983193,12.3042017 C9.08907563,12.4554622 8.99159664,12.7747899 8.94117647,13.0840336 C8.89411765,13.3596639 8.6487395,13.5613445 8.35630252,13.5613445 L7.59663866,13.5613445 L7.59663866,14.0117647 L8.35630252,14.0117647 C8.64537815,14.0117647 8.89411765,14.2134454 8.94117647,14.4890756 C8.99159664,14.794958 9.08907563,15.1142857 9.17983193,15.2655462 C9.31092437,15.487395 9.27058824,15.7663866 9.08235294,15.9478992 L8.51428571,16.4957983 L8.87058824,16.8386555 L9.44201681,16.2907563 C9.62352941,16.1193277 9.89579832,16.0789916 10.1210084,16.1831933 C10.3630252,16.297479 10.6420168,16.3815126 10.9546218,16.4285714 C11.2403361,16.4722689 11.4521008,16.7109244 11.4521008,16.989916 L11.4521008,17.7193277 L11.9226891,17.7193277 L11.9226891,16.989916 C11.9226891,16.7109244 12.1310924,16.4756303 12.4201681,16.4285714 C12.7361345,16.3781513 13.0016807,16.3008403 13.2571429,16.1798319 C13.4857143,16.0756303 13.7546218,16.1193277 13.9327731,16.287395 L14.5042017,16.8352941 L14.8605042,16.492437 L14.292437,15.9445378 C14.1142857,15.7697479 14.0672269,15.507563 14.1815126,15.2890756 C14.302521,15.0537815 14.3865546,14.7848739 14.4369748,14.4857143 C14.4840336,14.210084 14.7294118,14.0084034 15.0184874,14.0084034 L15.7781513,14.0084034 L15.7781513,14.0117647 Z M15.8991597,12.4252101 C16.4840336,12.4252101 16.9546218,12.8823529 16.9546218,13.4403361 L16.9546218,14.1294118 C16.9546218,14.6907563 16.4806723,15.1445378 15.8991597,15.1445378 L15.492437,15.1445378 C15.4655462,15.2352941 15.4386555,15.3260504 15.405042,15.410084 L15.7781513,15.7663866 C15.9798319,15.9647059 16.0907563,16.2201681 16.0907563,16.492437 C16.0907563,16.7647059 15.9831933,17.0201681 15.7815126,17.2151261 L15.2571429,17.7193277 C15.0588235,17.9109244 14.789916,18.0184874 14.5042017,18.0184874 L14.5008403,18.0184874 C14.2151261,18.0184874 13.9495798,17.9109244 13.7478992,17.7193277 L13.3781513,17.3630252 C13.287395,17.3932773 13.1966387,17.4235294 13.102521,17.4470588 L13.102521,17.8369748 C13.102521,18.3983193 12.6285714,18.8521008 12.0470588,18.8521008 L11.3310924,18.8521008 C10.7495798,18.8521008 10.2756303,18.394958 10.2756303,17.8369748 L10.2756303,17.4470588 C10.1815126,17.4235294 10.0907563,17.3932773 10,17.3630252 L9.62689076,17.7226891 C9.21344538,18.1193277 8.53781513,18.1226891 8.12436975,17.7226891 L7.6,17.2184874 C7.39831933,17.0268908 7.28739496,16.7680672 7.28739496,16.4957983 C7.28739496,16.2235294 7.39831933,15.9647059 7.6,15.7731092 L7.96638655,15.4168067 C7.93277311,15.3260504 7.90588235,15.2352941 7.88235294,15.1478992 L7.47563025,15.1478992 C6.89411765,15.1478992 6.42016807,14.6907563 6.42016807,14.1327731 L6.42016807,13.4436975 C6.42016807,12.8823529 6.89411765,12.4285714 7.47563025,12.4285714 L7.88235294,12.4285714 C7.90588235,12.3411765 7.93613445,12.2504202 7.96638655,12.1596639 L7.6,11.8033613 C7.39831933,11.6117647 7.28739496,11.3529412 7.28739496,11.0806723 C7.28739496,10.805042 7.39831933,10.5495798 7.6,10.3579832 L8.12436975,9.85378151 C8.53781513,9.45378151 9.21344538,9.45378151 9.62689076,9.85378151 L10,10.210084 C10.0907563,10.1798319 10.1815126,10.1529412 10.2756303,10.1260504 L10.2756303,9.73277311 C10.2756303,9.17142857 10.7495798,8.71764706 11.3310924,8.71764706 L12.0470588,8.71764706 C12.6319328,8.71764706 13.102521,9.17478992 13.102521,9.73277311 L13.102521,10.1260504 C13.1966387,10.1495798 13.2907563,10.1798319 13.3781513,10.210084 L13.7512605,9.85042017 C13.9495798,9.65882353 14.2151261,9.5512605 14.5008403,9.5512605 L14.5042017,9.5512605 C14.789916,9.5512605 15.0554622,9.65882353 15.2571429,9.85042017 L15.7781513,10.3546218 C15.9798319,10.5495798 16.0907563,10.805042 16.0907563,11.0773109 C16.0907563,11.3495798 15.9831933,11.605042 15.7815126,11.8 L15.405042,12.1596639 C15.4386555,12.2470588 15.4655462,12.3344538 15.492437,12.4252101 L15.8991597,12.4252101 L15.8991597,12.4252101 Z M21.8756303,19.3260504 C22.0268908,19.3260504 22.1478992,19.2084034 22.1478992,19.0638655 L22.1478992,8.21344538 L1.47563025,8.21344538 L1.47563025,19.0638655 C1.47563025,19.2084034 1.6,19.3260504 1.74789916,19.3260504 L21.8756303,19.3260504 L21.8756303,19.3260504 Z M1.7512605,4.4487395 C1.6,4.4487395 1.4789916,4.56638655 1.4789916,4.71092437 L1.4789916,6.78823529 L22.1512605,6.78823529 L22.1512605,4.71428571 C22.1512605,4.5697479 22.0302521,4.45210084 21.8789916,4.45210084 L1.7512605,4.45210084 L1.7512605,4.4487395 Z M21.8756303,3.0302521 C22.8403361,3.0302521 23.6235294,3.78655462 23.6235294,4.71428571 L23.6235294,19.0638655 C23.6235294,19.9915966 22.8403361,20.7478992 21.8756303,20.7478992 L1.7512605,20.7478992 C0.786554622,20.7478992 0,19.9915966 0,19.0638655 L0,4.71428571 C0,3.78655462 0.783193277,3.0302521 1.7512605,3.0302521 L21.8756303,3.0302521 Z" id="Ajustes-web-_2Regular"></path>
        </g>
    </g>
</svg>

<svg width="24" height="24" viewBox="0 0 24 24" xmlns="http://www.w3.org/2000/svg"><path d="M4.988 6.22a.67.67 0 01-.682-.659.67.67 0 01.682-.658.67.67 0 01.683.658.67.67 0 01-.683.66zm2.05 0a.67.67 0 01-.682-.659.67.67 0 01.683-.658.67.67 0 01.682.658c.003.363-.303.66-.682.66zm-4.1 0a.67.67 0 01-.683-.659.67.67 0 01.683-.658c.376 0 .682.295.682.658a.672.672 0 01-.682.66zm8.75 8.565c.725 0 1.035-.3 1.035-.995 0-.7-.31-.998-1.036-.998s-1.035.299-1.035.998c0 .696.313.995 1.035.995zm0-3.13c1.367 0 2.215.817 2.215 2.135 0 1.314-.848 2.131-2.216 2.131-1.368 0-2.215-.817-2.215-2.131 0-1.318.85-2.135 2.215-2.135zm4.09 2.357v-.45h-.76a.58.58 0 01-.581-.478c-.05-.3-.134-.571-.255-.803a.559.559 0 01.11-.656l.569-.548-.357-.343-.571.548a.61.61 0 01-.676.108 3.04 3.04 0 00-.837-.249.576.576 0 01-.497-.561v-.73h-.47v.73a.573.573 0 01-.495.561c-.316.05-.595.131-.837.246a.603.603 0 01-.679-.108l-.571-.548-.357.343.568.548c.189.181.229.46.098.682-.09.151-.188.47-.239.78a.584.584 0 01-.585.477h-.76v.45h.76c.29 0 .538.202.585.478.05.306.148.625.239.777.13.221.09.5-.098.682l-.568.548.357.343.571-.548a.617.617 0 01.679-.108c.242.114.521.199.834.246a.576.576 0 01.497.56v.73h.47v-.73c0-.278.21-.513.498-.56.316-.05.582-.128.837-.25a.615.615 0 01.676.108l.571.548.357-.343-.569-.547a.554.554 0 01-.11-.656c.12-.235.205-.504.255-.803a.583.583 0 01.581-.478h.76v.004zm.121-1.587c.585 0 1.056.457 1.056 1.015v.69c0 .56-.474 1.015-1.056 1.015h-.407c-.026.09-.053.181-.087.265l.373.356c.202.199.313.454.313.726a.995.995 0 01-.31.723l-.524.504a1.08 1.08 0 01-.753.3h-.003c-.286 0-.551-.108-.753-.3l-.37-.356c-.09.03-.181.06-.275.084v.39c0 .561-.474 1.015-1.056 1.015h-.716c-.581 0-1.055-.457-1.055-1.015v-.39a3.736 3.736 0 01-.276-.084l-.373.36c-.414.396-1.09.4-1.503 0l-.524-.505a.992.992 0 010-1.445l.366-.356a3.07 3.07 0 01-.084-.27h-.406c-.582 0-1.056-.456-1.056-1.014v-.69c0-.56.474-1.014 1.056-1.014h.406c.024-.088.054-.179.084-.27l-.366-.356a.992.992 0 010-1.445l.524-.504c.414-.4 1.09-.4 1.503 0l.373.356c.09-.03.182-.057.276-.084v-.393c0-.562.474-1.015 1.055-1.015h.716c.585 0 1.056.457 1.056 1.015v.393a3.3 3.3 0 01.275.084l.373-.36c.199-.191.464-.299.75-.299h.003c.286 0 .551.108.753.3l.521.504a.998.998 0 01.004 1.445l-.377.36c.034.087.06.174.087.265h.407zm5.977 6.901a.267.267 0 00.272-.262V8.214H1.476v10.85a.27.27 0 00.272.262h20.128zM1.75 4.45a.267.267 0 00-.272.262v2.077h20.672V4.714a.267.267 0 00-.272-.262H1.751V4.45zM21.876 3.03c.964 0 1.748.757 1.748 1.684v14.35c0 .928-.784 1.684-1.748 1.684H1.75C.787 20.748 0 19.992 0 19.064V4.714C0 3.787.783 3.03 1.751 3.03h20.125z" fill="#5CB615" fill-rule="nonzero"/></svg>
